X:1
T:James Gibb editions
T:O meine Seel, warum bist du betrübet? - Schütz
T:#
%%score [ 1 2 3 4 ]
L:1/8
Q:1/4=100
M:4/4
K:C
V:1 treble nm="Soprano" snm="S"
V:2 treble nm="Alto" snm="A"
V:3 treble-8 nm="Tenor" snm="T"
V:4 bass nm="Bass" snm="B"
V:1
"^O meine Seel, warum bist du betrübet?""^Heinrich Schütz\n(1585-1672)" A4 G2 A2 | B6 A2 | %2
w: O mei- ne|Seel, wa-|
w: Dein from- mer|Gott, der|
 B2 d2 c2 B2 | A8 |[M:4/4] ^G8 | E4 =G2 A2 | F4 G2 E2- | E2 A2 A2 ^G2 | A8 :| G4 F2 G2 | A4 G4 | %11
w: rum bist du be-|trü-|bet?|Zwar, du hast|des- sen Ur\-|* sach al- zu-|viel:|Du woll- test|Se- gen,|
w: dich all- zeit ge-|lie-|bet,|hat dir ver-|kehrt dein lang\-|* ge- hoff- tes|Ziel.|||
 c4 B2 A2 | d4 G4 | E4 F4 | G2 A4 B2 | c2 B2 (B2 A2) | B8 | c4 B4 | A2 d4 e2 | d6 c2 | B2 A2 B4 | %21
w: so wurd es|Re- gen,|der dei-|ner Au- gen|Glas zer- ris\- *|sen,|mit ei-|nem schar- fen|Trä- nen-|schmerz zer- bis-|
w: ||||||||||
 A16 |] %22
w: sen.|
w: |
V:2
 E4 E2 E2 | G6 ^F2 | G2 G2 E2 E2 | E8 |[M:4/4] E8 | B,4 E2 E2 | D4 D2 C2- | C2 E2 E2 E2 | E8 :| %9
w: O mei- ne|Seel, wa-|rum bist du be-|trü-|bet?|Zwar, du hast|des- sen Ur\-|* sach al- zu-|viel:|
w: Dein from- mer|Gott, der|dich all- zeit ge-|lie-|bet,|hat dir ver-|kehrt dein lang\-|* ge- hoff- tes|Ziel.|
 C4 C2 C2 | C4 C4 | E4 E2 C2 | F4 E4 | B,4 D4 | E2 C4 E2 | E2 E2 (E3 ^F) | ^G8 | =G4 G4 | %18
w: Du woll- test|Se- gen,|so wurd es|Re- gen,|der dei-|ner Au- gen|Glas zer- ris\- *|sen,|mit ei-|
w: |||||||||
 E2 ^F4 G2 | G6 E2 | E2 C2 E4 | E16 |] %22
w: nem schar- fen|Trä- nen-|schmerz zer- bis-|sen.|
w: ||||
V:3
 c4 B2 c2 | d6 d2 | d2 B2 A2 B2 | c8 |[M:4/4][K:treble-8] B8 | G4 B2 A2 | A4 B2 G2- | G2 c2 B2 B2 | %8
w: O mei- ne|Seel, wa-|rum bist du be-|trü-|bet?|Zwar, du hast|des- sen Ur\-|* sach al- zu-|
w: Dein from- mer|Gott, der|dich all- zeit ge-|lie-|bet,|hat dir ver-|kehrt dein lang\-|* ge- hoff- tes|
 A8 :| E4 A2 G2 | F4 E4 | A4 G2 F2 | (A2 B2) c4 | G4 A4 | c2 A4 G2 | A2 B2 c4 | B8 | e4 d4 | %18
w: viel:|Du woll- test|Se- gen,|so wurd es|Re\- * gen,|der dei-|ner Au- gen|Glas zer- ris-|sen,|mit ei-|
w: Ziel.||||||||||
 c2 A4 c2 | B6 A2 | ^G2 A2 (A2 G2) | A16 |] %22
w: nem schar- fen|Trä- nen-|schmerz zer- bis\- *|sen.|
w: ||||
V:4
 A,4 E,2 A,2 | G,6 D,2 | G,2 G,2 A,2 G,2 | A,8 |[M:4/4] E,8 | E,4 E,2 ^C,2 | D,4 B,,2 =C,2- | %7
w: O mei- ne|Seel, wa-|rum bist du be-|trü-|bet?|Zwar, du hast|des- sen Ur\-|
w: Dein from- mer|Gott, der|dich all- zeit ge-|lie-|bet,|hat dir ver-|kehrt dein lang\-|
 C,2 A,,2 E,2 E,2 | A,,8 :| C,4 F,2 E,2 | F,4 C,4 | A,,4 E,2 F,2 | D,4 C,4 | E,4 D,4 | %14
w: * sach al- zu-|viel:|Du woll- test|Se- gen,|so wurd es|Re- gen,|der dei-|
w: * ge- hoff- tes|Ziel.||||||
 C,2 F,4 E,2 | %15
w: ner Au- gen|
w: |
"^2.""^Mein lieber Gott, du hast mir ja zerschnitten""^Den allerbesten liebsten Herzensteil,""^Ich bin verletzt recht in der Seelen Mitten""^Durch deinen Grimm und bittern Todespfeil.""^Mir ist zergangen""^All mein Verlangen,""^Das Sehnen unsrer beiden Herzen,""^Das ungehoren ward getödt mit Schmerzen.""^3.""^Kann aber ich dich auch noch wieder kriegen.""^Mein Schatz? O nein! Zurücke kommst du nicht:.""^Doch werd ich einst zu dir auch dorthin fliegen""^Und sehen das von rechtem Angesicht,""^Was uns im Leben""^Nicht ward gegeben,""^Zu schauen, küssen und zu lieben:""^Wir müssen alles nur dorthin verschieben." A,2 ^G,2 A,4 | %16
w: Glas zer- ris-|
w: |
 E,8 | C,4 G,4 | %18
w: sen,|mit ei-|
w: ||
 A,2 D,4"^4,""^Die Zeit ist lang, worinnen ich mich plage,""^Und wünsche drum sehr oft zu Gott und dir;""^Die Nacht hat Angst, verdrießlich sind die Tage,""^Die unterdessen Gott vergönnet mir.""^Ein sehnlich Sehnen""^Kann mich gewöhnen,""^Daß ich an sonsten nichts gedenke,""^Als wie ich mich zu dir hinunter senke.""^5.""^Inzwischen, Gott, ach du mein rechter Tröster,""^Laß meine Seele doch verzagen nicht!""^Ich bin ja auch deins lieben Sohns Erlöster,""^Dem Teufel sag du das ins Angesicht!""^So wird sein Dichten""^An mir nichts richten;""^Ob er gleich viel will unterschieben;""^Zum Besten dienets denen, die Gott lieben!" C,2 | %19
w: nem schar- fen|
w: |
 G,6 A,2 | E,2 F,2 E,4 | A,,16 |] %22
w: Trä- nen-|schmerz zer- bis-|sen.|
w: |||

